X: 39559
T: Teampall An Ghleanntáin
R: reel
M: 4/4
K: Dmajor
dcAG EF~F2|AG~G2 EF~F2|1 dcAG EF~F2|A2GE EDD2:|2 AG~G2 EF~F2|A2GE EDAD||
|:(3EFG AB =c3B|Add2 efed|dcAG EFGE|1 A2GE EDAD:|2 A2GE EDD2||

